symbols/web/square_foot/materialsymbolsoutlined/square_foot_wght300gradN25_48px.svg

<svg xmlns="http://www.w3.org/2000/svg" height="48" width="48"><path d="M34.15 40.35H11.4q-1.65 0-2.7-1.05-1.05-1.05-1.05-2.7V13.45q0-1.85 1.325-2.375 1.325-.525 2.625.725l2 2.05-1.65 1.65 1.15 1.1 1.65-1.65 5.15 5.15-1.65 1.7 1.1 1.1L21 21.25l5.35 5.3-1.7 1.65 1.15 1.1 1.65-1.65 5.15 5.2-1.65 1.65 1.15 1.1 1.65-1.65 2.05 2.1q1.6 1.55 1.025 2.925-.575 1.375-2.675 1.375Zm-23.6-24.2V36.8q0 .3.175.475t.475.175h20.65Z"/></svg>

<svg xmlns="http://www.w3.org/2000/svg" height="48" width="48"><path d="M34.15 40.35H11.4Q9.75 40.35 8.7 39.3Q7.65 38.25 7.65 36.6V13.45Q7.65 11.6 8.975 11.075Q10.3 10.55 11.6 11.8L13.6 13.85L11.95 15.5L13.1 16.6L14.75 14.95L19.9 20.1L18.25 21.8L19.35 22.9L21 21.25L26.35 26.55L24.65 28.2L25.8 29.3L27.45 27.65L32.6 32.85L30.95 34.5L32.1 35.6L33.75 33.95L35.8 36.05Q37.4 37.6 36.825 38.975Q36.25 40.35 34.15 40.35ZM10.55 16.15V36.8Q10.55 37.1 10.725 37.275Q10.9 37.45 11.2 37.45H31.85Z"/></svg>
